source/os_centos.svg

<?xml version="1.0" encoding="UTF-8" standalone="no"?>
<!-- Created with Inkscape (http://www.inkscape.org/) -->

<svg
   width="400"
   height="400"
   viewBox="0 0 375.00001 375.00003"
   id="svg2"
   version="1.1"
   inkscape:version="1.1.2 (0a00cf5339, 2022-02-04)"
   sodipodi:docname="os_centos.svg"
   inkscape:export-filename="../icons/os_centos.png"
   inkscape:export-xdpi="30.719999"
   inkscape:export-ydpi="30.719999"
   xmlns:inkscape="http://www.inkscape.org/namespaces/inkscape"
   xmlns:sodipodi="http://sodipodi.sourceforge.net/DTD/sodipodi-0.dtd"
   xmlns="http://www.w3.org/2000/svg"
   xmlns:svg="http://www.w3.org/2000/svg"
   xmlns:rdf="http://www.w3.org/1999/02/22-rdf-syntax-ns#"
   xmlns:cc="http://creativecommons.org/ns#"
   xmlns:dc="http://purl.org/dc/elements/1.1/">
  <defs
     id="defs4" />
  <sodipodi:namedview
     id="base"
     pagecolor="#21252e"
     bordercolor="#bebebe"
     borderopacity="1"
     inkscape:pageopacity="0"
     inkscape:pageshadow="2"
     inkscape:zoom="3.5436409"
     inkscape:cx="208.82477"
     inkscape:cy="191.46974"
     inkscape:document-units="px"
     inkscape:current-layer="svg2"
     showgrid="false"
     inkscape:window-width="1942"
     inkscape:window-height="1082"
     inkscape:window-x="169"
     inkscape:window-y="321"
     inkscape:window-maximized="0"
     units="px"
     inkscape:showpageshadow="false"
     showguides="true"
     inkscape:guide-bbox="true"
     inkscape:snap-global="true"
     inkscape:snap-bbox="true"
     inkscape:snap-others="false"
     fit-margin-top="0"
     fit-margin-left="0"
     fit-margin-right="0"
     fit-margin-bottom="0"
     inkscape:pagecheckerboard="0"
     width="400px"
     inkscape:bbox-paths="true"
     inkscape:bbox-nodes="true"
     inkscape:snap-nodes="true">
    <sodipodi:guide
       position="93.750005,375.00002"
       orientation="-1,0"
       id="guide839"
       inkscape:label=""
       inkscape:locked="false"
       inkscape:color="rgb(0,0,255)" />
    <sodipodi:guide
       position="281.25001,375.00002"
       orientation="-1,0"
       id="guide841"
       inkscape:label=""
       inkscape:locked="false"
       inkscape:color="rgb(0,0,255)" />
    <sodipodi:guide
       position="0,281.25001"
       orientation="0,1"
       id="guide843"
       inkscape:label=""
       inkscape:locked="false"
       inkscape:color="rgb(0,0,255)" />
    <sodipodi:guide
       position="0,93.750005"
       orientation="0,1"
       id="guide845"
       inkscape:label=""
       inkscape:locked="false"
       inkscape:color="rgb(0,0,255)" />
    <sodipodi:guide
       position="187.50002,281.25002"
       orientation="1,0"
       id="guide1459" />
    <sodipodi:guide
       position="166.05837,187.50001"
       orientation="0,-1"
       id="guide1461" />
    <sodipodi:guide
       position="172.69593,172.69593"
       orientation="0.70710678,-0.70710678"
       id="guide1463" />
  </sodipodi:namedview>
  <metadata
     id="metadata7">
    <rdf:RDF>
      <cc:Work
         rdf:about="">
        <dc:format>image/svg+xml</dc:format>
        <dc:type
           rdf:resource="http://purl.org/dc/dcmitype/StillImage" />
      </cc:Work>
    </rdf:RDF>
  </metadata>
  <path
     id="path861"
     style="display:inline;opacity:1;fill:#ecf0f1;fill-opacity:1;stroke-width:0.999999"
     d="M 200,100 A 99.999999,99.999999 0 0 0 100,200 99.999999,99.999999 0 0 0 200,300 99.999999,99.999999 0 0 0 300,200 99.999999,99.999999 0 0 0 200,100 Z m 0,24.32422 22.16406,22.16601 31.34571,31.34571 L 275.67773,200 253.51172,222.16406 v 31.34375 l -31.34766,0.002 L 200,275.67578 l -22.16602,-22.16601 -31.3457,0.002 -0.002,-31.34766 L 124.32227,200 l 22.16406,-22.16602 0.002,-31.3457 31.3457,0.002 z m 6.72852,22.16406 -13.45704,0.002 v 23.91211 l 6.72852,6.72657 6.72852,-6.72657 z m -39.8125,10.91602 -9.51368,9.51367 16.91016,16.91211 9.51758,-0.004 -0.004,-9.50976 z m -20.42969,35.86718 v 13.45704 h 23.91406 L 177.12891,200 l -6.72852,-6.72852 z m 82.57226,0 -6.72656,6.72852 6.72656,6.72852 h 23.91407 v -13.45704 z m -13.26562,22.51758 -0.002,9.51563 16.91015,16.91015 9.51367,-9.51367 -16.91015,-16.91015 z m -41.09766,0.002 -16.91015,16.91015 9.51367,9.51367 16.91015,-16.91015 v -9.51367 z M 200,222.33008 l -6.72852,6.72851 v 23.91407 h 13.45704 v -23.91407 z"
     transform="matrix(0.937503,0,0,0.937503,-0.001321,4.95e-4)" />
  <path
     id="path898"
     style="display:inline;opacity:1;fill:#c2c2c2;fill-opacity:1;stroke-width:15.0019;stroke-linecap:round;paint-order:fill markers stroke;stop-color:#000000"
     d="m 185.63218,602.51353 -2.05344,1.81453 -2.05345,-1.81514 v 2.66556 h -2.66528 l 1.81483,2.0534 -1.81523,2.05342 h 2.66568 v 2.66507 l 2.05345,-1.81467 2.05344,1.8149 v -2.6653 h 2.66492 l -1.81448,-2.05335 1.81517,-2.05347 h -2.66561 z"
     inkscape:export-xdpi="14.35"
     inkscape:export-ydpi="14.35"
     sodipodi:nodetypes="ccccccccccccccccc"
     transform="matrix(3.07155,0,0,3.07155,-376.371,-1677.65)" />
  <path
     id="path900"
     style="display:inline;opacity:1;fill:#c2c2c2;fill-opacity:1;stroke-width:10.7245;stroke-linecap:round;paint-order:fill markers stroke;stop-color:#000000"
     d="m 190.34928,590.90567 3.32605,3.32598 -5.16123,5.16112 1.2e-4,2.90375 2.9038,9e-5 5.1612,-5.1611 3.33758,3.3375 -0.005,-9.5734 z"
     inkscape:export-xdpi="13.06"
     inkscape:export-ydpi="13.06"
     sodipodi:nodetypes="ccccccccc"
     transform="matrix(3.07155,0,0,3.07155,-376.371,-1677.65)" />
</svg>

<?xml version="1.0" encoding="UTF-8" standalone="no"?>
<!-- Created with Inkscape (http://www.inkscape.org/) -->

<svg
   width="400"
   height="400"
   viewBox="0 0 375.00001 375.00003"
   id="svg2"
   version="1.1"
   inkscape:version="1.1.2 (0a00cf5339, 2022-02-04)"
   sodipodi:docname="os_centos.svg"
   inkscape:export-filename="../icons/os_centos.png"
   inkscape:export-xdpi="30.719999"
   inkscape:export-ydpi="30.719999"
   xmlns:inkscape="http://www.inkscape.org/namespaces/inkscape"
   xmlns:sodipodi="http://sodipodi.sourceforge.net/DTD/sodipodi-0.dtd"
   xmlns="http://www.w3.org/2000/svg"
   xmlns:svg="http://www.w3.org/2000/svg"
   xmlns:rdf="http://www.w3.org/1999/02/22-rdf-syntax-ns#"
   xmlns:cc="http://creativecommons.org/ns#"
   xmlns:dc="http://purl.org/dc/elements/1.1/">
  <defs
     id="defs4" />
  <sodipodi:namedview
     id="base"
     pagecolor="#21252e"
     bordercolor="#bebebe"
     borderopacity="1"
     inkscape:pageopacity="0"
     inkscape:pageshadow="2"
     inkscape:zoom="3.5436409"
     inkscape:cx="208.82477"
     inkscape:cy="191.46974"
     inkscape:document-units="px"
     inkscape:current-layer="g4016"
     showgrid="false"
     inkscape:window-width="1942"
     inkscape:window-height="1082"
     inkscape:window-x="169"
     inkscape:window-y="321"
     inkscape:window-maximized="0"
     units="px"
     inkscape:showpageshadow="false"
     showguides="true"
     inkscape:guide-bbox="true"
     inkscape:snap-global="true"
     inkscape:snap-bbox="true"
     inkscape:snap-others="false"
     fit-margin-top="0"
     fit-margin-left="0"
     fit-margin-right="0"
     fit-margin-bottom="0"
     inkscape:pagecheckerboard="0"
     width="400px"
     inkscape:bbox-paths="true"
     inkscape:bbox-nodes="true"
     inkscape:snap-nodes="true">
    <sodipodi:guide
       position="93.750005,375.00002"
       orientation="-1,0"
       id="guide839"
       inkscape:label=""
       inkscape:locked="false"
       inkscape:color="rgb(0,0,255)" />
    <sodipodi:guide
       position="281.25001,375.00002"
       orientation="-1,0"
       id="guide841"
       inkscape:label=""
       inkscape:locked="false"
       inkscape:color="rgb(0,0,255)" />
    <sodipodi:guide
       position="0,281.25001"
       orientation="0,1"
       id="guide843"
       inkscape:label=""
       inkscape:locked="false"
       inkscape:color="rgb(0,0,255)" />
    <sodipodi:guide
       position="0,93.750005"
       orientation="0,1"
       id="guide845"
       inkscape:label=""
       inkscape:locked="false"
       inkscape:color="rgb(0,0,255)" />
    <sodipodi:guide
       position="187.50002,281.25002"
       orientation="1,0"
       id="guide1459" />
    <sodipodi:guide
       position="166.05837,187.50001"
       orientation="0,-1"
       id="guide1461" />
    <sodipodi:guide
       position="172.69593,172.69593"
       orientation="0.70710678,-0.70710678"
       id="guide1463" />
  </sodipodi:namedview>
  <metadata
     id="metadata7">
    <rdf:RDF>
      <cc:Work
         rdf:about="">
        <dc:format>image/svg+xml</dc:format>
        <dc:type
           rdf:resource="http://purl.org/dc/dcmitype/StillImage" />
      </cc:Work>
    </rdf:RDF>
  </metadata>
  <g
     inkscape:label="Layer 1"
     inkscape:groupmode="layer"
     id="layer1"
     style="opacity:0.96"
     transform="translate(-39.167521,88.250195)">
    <path
       style="fill:#000000"
       d=""
       id="path4134"
       inkscape:connector-curvature="0" />
    <g
       transform="translate(-141.01382,-425.49872)"
       style="display:inline"
       inkscape:label="debian vector"
       id="layer3">
      <g
         id="g4573"
         transform="translate(131.00657,-3.8976736)">
        <g
           id="g4627"
           style="opacity:0.99">
          <g
             id="g4740"
             transform="translate(-34.291185,268.4348)">
            <g
               transform="translate(380.29592,62.962549)"
               id="g4109">
              <g
                 transform="matrix(0.77230011,0,0,0.77230011,-239.76484,-6.9998595)"
                 style="fill:#ffffff;fill-opacity:1"
                 id="g4077">
                <g
                   id="layer1-5"
                   inkscape:label="Layer 1"
                   transform="matrix(1.2948334,0,0,1.2948334,-524.75052,-387.7468)">
                  <g
                     transform="translate(105.76257,-1.6247732)"
                     id="g6445">
                    <g
                       id="g6415"
                       transform="matrix(3.0715506,0,0,3.0715506,-521.15168,-1035.6235)">
                      <g
                         transform="translate(126.06579,-105.54595)"
                         id="g4016">
                        <path
                           id="path861"
                           style="fill:#ecf0f1;stroke-width:0.999999;fill-opacity:1"
                           d="M 200 100 A 99.999999 99.999999 0 0 0 100 200 A 99.999999 99.999999 0 0 0 200 300 A 99.999999 99.999999 0 0 0 300 200 A 99.999999 99.999999 0 0 0 200 100 z M 200 124.32422 L 222.16406 146.49023 L 253.50977 177.83594 L 275.67773 200 L 253.51172 222.16406 L 253.51172 253.50781 L 222.16406 253.50977 L 200 275.67578 L 177.83398 253.50977 L 146.48828 253.51172 L 146.48633 222.16406 L 124.32227 200 L 146.48633 177.83398 L 146.48828 146.48828 L 177.83398 146.49023 L 200 124.32422 z M 206.72852 146.48828 L 193.27148 146.49023 L 193.27148 170.40234 L 200 177.12891 L 206.72852 170.40234 L 206.72852 146.48828 z M 166.91602 157.4043 L 157.40234 166.91797 L 174.3125 183.83008 L 183.83008 183.82617 L 183.82617 174.31641 L 166.91602 157.4043 z M 146.48633 193.27148 L 146.48633 206.72852 L 170.40039 206.72852 L 177.12891 200 L 170.40039 193.27148 L 146.48633 193.27148 z M 229.05859 193.27148 L 222.33203 200 L 229.05859 206.72852 L 252.97266 206.72852 L 252.97266 193.27148 L 229.05859 193.27148 z M 215.79297 215.78906 L 215.79102 225.30469 L 232.70117 242.21484 L 242.21484 232.70117 L 225.30469 215.79102 L 215.79297 215.78906 z M 174.69531 215.79102 L 157.78516 232.70117 L 167.29883 242.21484 L 184.20898 225.30469 L 184.20898 215.79102 L 174.69531 215.79102 z M 200 222.33008 L 193.27148 229.05859 L 193.27148 252.97266 L 206.72852 252.97266 L 206.72852 229.05859 L 200 222.33008 z "
                           transform="matrix(0.30522045,0,0,0.30522045,122.53467,546.18785)" />
                        <g
                           id="g4182"
                           transform="matrix(0.61815127,0,0,0.61815127,205.2279,224.79962)" />
                        <path
                           id="path898"
                           style="opacity:0.99;fill:#c2c2c2;fill-opacity:1;stroke-width:15.0019;stroke-linecap:round;paint-order:fill markers stroke;stop-color:#000000"
                           d="m 185.63218,602.51353 -2.05344,1.81453 -2.05345,-1.81514 v 2.66556 h -2.66528 l 1.81483,2.0534 -1.81523,2.05342 h 2.66568 v 2.66507 l 2.05345,-1.81467 2.05344,1.8149 v -2.6653 h 2.66492 l -1.81448,-2.05335 1.81517,-2.05347 h -2.66561 z"
                           inkscape:export-xdpi="14.35"
                           inkscape:export-ydpi="14.35"
                           sodipodi:nodetypes="ccccccccccccccccc" />
                        <path
                           id="path900"
                           style="opacity:0.99;fill:#c2c2c2;fill-opacity:1;stroke-width:10.7245;stroke-linecap:round;paint-order:fill markers stroke;stop-color:#000000"
                           d="m 190.34928,590.90567 3.32605,3.32598 -5.16123,5.16112 1.2e-4,2.90375 2.9038,9e-5 5.1612,-5.1611 3.33758,3.3375 -0.005,-9.5734 z"
                           inkscape:export-xdpi="13.06"
                           inkscape:export-ydpi="13.06"
                           sodipodi:nodetypes="ccccccccc" />
                      </g>
                    </g>
                  </g>
                </g>
              </g>
            </g>
          </g>
        </g>
      </g>
    </g>
  </g>
</svg>
